src/assets/icons/group-fill.svg

<svg xmlns="http://www.w3.org/2000/svg" viewBox="0 0 24 24"><path d="M2 22C2 17.5817 5.58172 14 10 14C14.4183 14 18 17.5817 18 22H2ZM10 13C6.685 13 4 10.315 4 7C4 3.685 6.685 1 10 1C13.315 1 16 3.685 16 7C16 10.315 13.315 13 10 13ZM17.3628 15.2332C20.4482 16.0217 22.7679 18.7235 22.9836 22H20C20 19.3902 19.0002 17.0139 17.3628 15.2332ZM15.3401 12.9569C16.9728 11.4922 18 9.36607 18 7C18 5.58266 17.6314 4.25141 16.9849 3.09687C19.2753 3.55397 21 5.57465 21 8C21 10.7625 18.7625 13 16 13C15.7763 13 15.556 12.9853 15.3401 12.9569Z"></path></svg>

<svg xmlns="http://www.w3.org/2000/svg" viewBox="0 0 24 24"><path d="M2 22a8 8 0 1 1 16 0zm8-9c-3.315 0-6-2.685-6-6s2.685-6 6-6 6 2.685 6 6-2.685 6-6 6m7.363 2.233A7.505 7.505 0 0 1 22.983 22H20c0-2.61-1-4.986-2.637-6.767m-2.023-2.276A7.98 7.98 0 0 0 18 7a7.96 7.96 0 0 0-1.015-3.903A5 5 0 0 1 21 8a5 5 0 0 1-5.66 4.957"/></svg>
